images/16758656.svg

<?xml version="1.0" encoding="UTF-8"?>
<svg xmlns="http://www.w3.org/2000/svg" xmlns:xlink="http://www.w3.org/1999/xlink" width="300pt" height="300pt" viewBox="0 0 300 300" version="1.1">
<defs>
<g>
<symbol overflow="visible" id="glyph0-0">
<path style="stroke:none;" d="M 0.453125 1.59375 L 0.453125 -6.34375 L 4.953125 -6.34375 L 4.953125 1.59375 Z M 0.953125 1.09375 L 4.453125 1.09375 L 4.453125 -5.84375 L 0.953125 -5.84375 Z M 0.953125 1.09375 "/>
</symbol>
<symbol overflow="visible" id="glyph0-1">
<path style="stroke:none;" d="M 3.546875 -5.953125 C 2.898438 -5.953125 2.382812 -5.710938 2 -5.234375 C 1.625 -4.753906 1.4375 -4.101562 1.4375 -3.28125 C 1.4375 -2.445312 1.625 -1.789062 2 -1.3125 C 2.382812 -0.832031 2.898438 -0.59375 3.546875 -0.59375 C 4.191406 -0.59375 4.703125 -0.832031 5.078125 -1.3125 C 5.453125 -1.789062 5.640625 -2.445312 5.640625 -3.28125 C 5.640625 -4.101562 5.453125 -4.753906 5.078125 -5.234375 C 4.703125 -5.710938 4.191406 -5.953125 3.546875 -5.953125 Z M 3.546875 -6.6875 C 4.460938 -6.6875 5.195312 -6.375 5.75 -5.75 C 6.300781 -5.132812 6.578125 -4.3125 6.578125 -3.28125 C 6.578125 -2.238281 6.300781 -1.410156 5.75 -0.796875 C 5.195312 -0.179688 4.460938 0.125 3.546875 0.125 C 2.617188 0.125 1.878906 -0.179688 1.328125 -0.796875 C 0.773438 -1.410156 0.5 -2.238281 0.5 -3.28125 C 0.5 -4.3125 0.773438 -5.132812 1.328125 -5.75 C 1.878906 -6.375 2.617188 -6.6875 3.546875 -6.6875 Z M 3.546875 -6.6875 "/>
</symbol>
<symbol overflow="visible" id="glyph0-2">
<path style="stroke:none;" d="M 0.890625 -6.5625 L 2.078125 -6.5625 L 4.984375 -1.078125 L 4.984375 -6.5625 L 5.84375 -6.5625 L 5.84375 0 L 4.65625 0 L 1.75 -5.484375 L 1.75 0 L 0.890625 0 Z M 0.890625 -6.5625 "/>
</symbol>
<symbol overflow="visible" id="glyph0-3">
<path style="stroke:none;" d="M 0.890625 -6.5625 L 1.765625 -6.5625 L 1.765625 -3.875 L 5 -3.875 L 5 -6.5625 L 5.890625 -6.5625 L 5.890625 0 L 5 0 L 5 -3.125 L 1.765625 -3.125 L 1.765625 0 L 0.890625 0 Z M 0.890625 -6.5625 "/>
</symbol>
</g>
</defs>
<g id="surface37665">
<rect x="0" y="0" width="300" height="300" style="fill:rgb(100%,100%,100%);fill-opacity:1;stroke:none;"/>
<path style="fill:none;stroke-width:1.2;stroke-linecap:butt;stroke-linejoin:miter;stroke:rgb(0%,0%,0%);stroke-opacity:1;stroke-miterlimit:10;" d="M 37.144531 202.082031 L 45.449219 185.507812 "/>
<path style="fill:none;stroke-width:1.2;stroke-linecap:butt;stroke-linejoin:miter;stroke:rgb(0%,0%,0%);stroke-opacity:1;stroke-miterlimit:10;" d="M 45.449219 185.507812 L 63.957031 184.414062 "/>
<path style="fill:none;stroke-width:1.2;stroke-linecap:butt;stroke-linejoin:miter;stroke:rgb(0%,0%,0%);stroke-opacity:1;stroke-miterlimit:10;" d="M 47.558594 189.75 L 62.363281 188.875 "/>
<path style="fill:none;stroke-width:1.2;stroke-linecap:butt;stroke-linejoin:miter;stroke:rgb(0%,0%,0%);stroke-opacity:1;stroke-miterlimit:10;" d="M 45.449219 185.507812 L 35.25 170.027344 "/>
<path style="fill:none;stroke-width:1.2;stroke-linecap:butt;stroke-linejoin:miter;stroke:rgb(0%,0%,0%);stroke-opacity:1;stroke-miterlimit:10;" d="M 63.957031 184.414062 L 72.261719 167.835938 "/>
<path style="fill:none;stroke-width:1.2;stroke-linecap:butt;stroke-linejoin:miter;stroke:rgb(0%,0%,0%);stroke-opacity:1;stroke-miterlimit:10;" d="M 72.261719 167.835938 L 90.769531 166.742188 "/>
<path style="fill:none;stroke-width:1.2;stroke-linecap:butt;stroke-linejoin:miter;stroke:rgb(0%,0%,0%);stroke-opacity:1;stroke-miterlimit:10;" d="M 90.769531 166.742188 L 99.074219 150.167969 "/>
<path style="fill:none;stroke-width:1.2;stroke-linecap:butt;stroke-linejoin:miter;stroke:rgb(0%,0%,0%);stroke-opacity:1;stroke-miterlimit:10;" d="M 99.074219 150.167969 L 117.582031 149.074219 "/>
<path style="fill:none;stroke-width:1.2;stroke-linecap:butt;stroke-linejoin:miter;stroke:rgb(0%,0%,0%);stroke-opacity:1;stroke-miterlimit:10;" d="M 101.183594 154.414062 L 115.988281 153.539062 "/>
<path style="fill:none;stroke-width:1.2;stroke-linecap:butt;stroke-linejoin:miter;stroke:rgb(0%,0%,0%);stroke-opacity:1;stroke-miterlimit:10;" d="M 99.074219 150.167969 L 88.875 134.6875 "/>
<path style="fill:none;stroke-width:1.2;stroke-linecap:butt;stroke-linejoin:miter;stroke:rgb(0%,0%,0%);stroke-opacity:1;stroke-miterlimit:10;" d="M 117.582031 149.074219 L 125.886719 132.5 "/>
<path style="fill:none;stroke-width:1.2;stroke-linecap:butt;stroke-linejoin:miter;stroke:rgb(0%,0%,0%);stroke-opacity:1;stroke-miterlimit:10;" d="M 125.886719 132.5 L 135.140625 131.953125 "/>
<path style="fill:none;stroke-width:1.2;stroke-linecap:butt;stroke-linejoin:miter;stroke:rgb(100%,0%,0%);stroke-opacity:1;stroke-miterlimit:10;" d="M 135.140625 131.953125 L 144.394531 131.40625 "/>
<path style="fill:none;stroke-width:1.2;stroke-linecap:butt;stroke-linejoin:miter;stroke:rgb(100%,0%,0%);stroke-opacity:1;stroke-miterlimit:10;" d="M 144.394531 131.40625 L 148.546875 123.117188 "/>
<path style="fill:none;stroke-width:1.2;stroke-linecap:butt;stroke-linejoin:miter;stroke:rgb(0%,0%,100%);stroke-opacity:1;stroke-miterlimit:10;" d="M 148.546875 123.117188 L 152.699219 114.832031 "/>
<path style=" stroke:none;fill-rule:nonzero;fill:rgb(100%,100%,100%);fill-opacity:1;" d="M 140.394531 125.90625 L 148.394531 125.90625 L 148.394531 136.90625 L 140.394531 136.90625 Z M 140.394531 125.90625 "/>
<g style="fill:rgb(100%,0%,0%);fill-opacity:1;">
  <use xlink:href="#glyph0-1" x="140.394531" y="134.569336"/>
</g>
<path style="fill:none;stroke-width:1.2;stroke-linecap:butt;stroke-linejoin:miter;stroke:rgb(0%,0%,100%);stroke-opacity:1;stroke-miterlimit:10;" d="M 152.699219 114.832031 L 161.953125 114.285156 "/>
<path style="fill:none;stroke-width:1.2;stroke-linecap:butt;stroke-linejoin:miter;stroke:rgb(0%,0%,0%);stroke-opacity:1;stroke-miterlimit:10;" d="M 161.953125 114.285156 L 171.203125 113.738281 "/>
<path style="fill:none;stroke-width:1.2;stroke-linecap:butt;stroke-linejoin:miter;stroke:rgb(0%,0%,100%);stroke-opacity:1;stroke-miterlimit:10;" d="M 154.804688 119.074219 L 162.207031 118.636719 "/>
<path style="fill:none;stroke-width:1.2;stroke-linecap:butt;stroke-linejoin:miter;stroke:rgb(0%,0%,0%);stroke-opacity:1;stroke-miterlimit:10;" d="M 162.207031 118.636719 L 169.609375 118.199219 "/>
<path style=" stroke:none;fill-rule:nonzero;fill:rgb(100%,100%,100%);fill-opacity:1;" d="M 149.699219 109.332031 L 156.699219 109.332031 L 156.699219 120.332031 L 149.699219 120.332031 Z M 149.699219 109.332031 "/>
<g style="fill:rgb(0%,0%,100%);fill-opacity:1;">
  <use xlink:href="#glyph0-2" x="149.699219" y="117.995117"/>
</g>
<path style="fill:none;stroke-width:1.2;stroke-linecap:butt;stroke-linejoin:miter;stroke:rgb(0%,0%,0%);stroke-opacity:1;stroke-miterlimit:10;" d="M 171.203125 113.738281 L 179.507812 97.164062 "/>
<path style="fill:none;stroke-width:1.2;stroke-linecap:butt;stroke-linejoin:miter;stroke:rgb(0%,0%,0%);stroke-opacity:1;stroke-miterlimit:10;" d="M 171.203125 113.738281 L 181.40625 129.214844 "/>
<path style="fill:none;stroke-width:1.2;stroke-linecap:butt;stroke-linejoin:miter;stroke:rgb(0%,0%,0%);stroke-opacity:1;stroke-miterlimit:10;" d="M 179.507812 97.164062 L 198.015625 96.066406 "/>
<path style="fill:none;stroke-width:1.2;stroke-linecap:butt;stroke-linejoin:miter;stroke:rgb(0%,0%,0%);stroke-opacity:1;stroke-miterlimit:10;" d="M 198.015625 96.066406 L 208.21875 111.546875 "/>
<path style=" stroke:none;fill-rule:nonzero;fill:rgb(0%,0%,0%);fill-opacity:1;" d="M 198.015625 96.066406 L 209.246094 80.960938 L 203.398438 78.027344 Z M 198.015625 96.066406 "/>
<path style="fill:none;stroke-width:1.2;stroke-linecap:butt;stroke-linejoin:miter;stroke:rgb(0%,0%,0%);stroke-opacity:1;stroke-miterlimit:10;" d="M 208.21875 111.546875 L 199.910156 128.121094 "/>
<path style=" stroke:none;fill-rule:nonzero;fill:rgb(0%,0%,0%);fill-opacity:1;" d="M 208.21875 111.546875 L 226.917969 113.71875 L 226.53125 107.1875 Z M 208.21875 111.546875 "/>
<path style="fill:none;stroke-width:1;stroke-linecap:butt;stroke-linejoin:miter;stroke:rgb(0%,0%,0%);stroke-opacity:1;stroke-miterlimit:10;" d="M 199.910156 128.121094 L 199.910156 128.121094 M 196.933594 127.777344 L 196.992188 128.816406 M 193.953125 127.429688 L 194.074219 129.511719 M 190.972656 127.082031 L 191.15625 130.207031 M 187.992188 126.738281 L 188.238281 130.902344 M 185.011719 126.390625 L 185.320312 131.597656 M 182.03125 126.046875 L 182.402344 132.292969 M 181.210938 125.949219 L 181.597656 132.480469 "/>
<path style="fill:none;stroke-width:1.2;stroke-linecap:butt;stroke-linejoin:miter;stroke:rgb(0%,0%,0%);stroke-opacity:1;stroke-miterlimit:10;" d="M 210.113281 143.601562 L 199.910156 128.121094 "/>
<path style="fill:none;stroke-width:1;stroke-linecap:butt;stroke-linejoin:miter;stroke:rgb(0%,0%,0%);stroke-opacity:1;stroke-miterlimit:10;" d="M 181.40625 129.214844 L 181.40625 129.214844 M 179.617188 131.625 L 180.546875 132.089844 M 177.828125 134.03125 L 179.691406 134.964844 M 176.035156 136.441406 L 178.832031 137.839844 M 174.246094 138.847656 L 177.976562 140.714844 M 172.457031 141.253906 L 177.117188 143.589844 M 170.667969 143.664062 L 176.261719 146.464844 M 170.175781 144.324219 L 176.023438 147.257812 "/>
<path style="fill:none;stroke-width:1.2;stroke-linecap:butt;stroke-linejoin:miter;stroke:rgb(0%,0%,0%);stroke-opacity:1;stroke-miterlimit:10;" d="M 173.101562 145.789062 L 183.300781 161.269531 "/>
<path style=" stroke:none;fill-rule:nonzero;fill:rgb(0%,0%,0%);fill-opacity:1;" d="M 201.808594 160.175781 L 183.109375 158.003906 L 183.496094 164.535156 Z M 201.808594 160.175781 "/>
<path style="fill:none;stroke-width:1.2;stroke-linecap:butt;stroke-linejoin:miter;stroke:rgb(0%,0%,0%);stroke-opacity:1;stroke-miterlimit:10;" d="M 201.808594 160.175781 L 210.113281 143.601562 "/>
<path style="fill:none;stroke-width:1.2;stroke-linecap:butt;stroke-linejoin:miter;stroke:rgb(0%,0%,0%);stroke-opacity:1;stroke-miterlimit:10;" d="M 215.003906 173.195312 L 201.808594 160.175781 "/>
<path style="fill:none;stroke-width:1;stroke-linecap:butt;stroke-linejoin:miter;stroke:rgb(0%,0%,0%);stroke-opacity:1;stroke-miterlimit:10;" d="M 210.113281 143.601562 L 210.113281 143.601562 M 212.957031 144.558594 L 213.113281 143.527344 M 215.800781 145.515625 L 216.113281 143.457031 M 218.640625 146.476562 L 219.109375 143.382812 M 221.484375 147.433594 L 222.109375 143.308594 M 224.328125 148.390625 L 225.109375 143.238281 M 227.171875 149.351562 L 228.109375 143.164062 M 227.953125 149.613281 L 228.933594 143.144531 "/>
<path style="fill:none;stroke-width:1.2;stroke-linecap:butt;stroke-linejoin:miter;stroke:rgb(0%,0%,0%);stroke-opacity:1;stroke-miterlimit:10;" d="M 229.996094 147.910156 L 236.503906 141.3125 "/>
<path style="fill:none;stroke-width:1.2;stroke-linecap:butt;stroke-linejoin:miter;stroke:rgb(100%,0%,0%);stroke-opacity:1;stroke-miterlimit:10;" d="M 236.503906 141.3125 L 243.015625 134.714844 "/>
<path style="fill:none;stroke-width:1.2;stroke-linecap:butt;stroke-linejoin:miter;stroke:rgb(0%,0%,0%);stroke-opacity:1;stroke-miterlimit:10;" d="M 226.890625 144.847656 L 233.402344 138.25 "/>
<path style="fill:none;stroke-width:1.2;stroke-linecap:butt;stroke-linejoin:miter;stroke:rgb(100%,0%,0%);stroke-opacity:1;stroke-miterlimit:10;" d="M 233.402344 138.25 L 239.910156 131.648438 "/>
<path style="fill:none;stroke-width:1.2;stroke-linecap:butt;stroke-linejoin:miter;stroke:rgb(0%,0%,0%);stroke-opacity:1;stroke-miterlimit:10;" d="M 228.441406 146.378906 L 229.953125 155.523438 "/>
<path style="fill:none;stroke-width:1.2;stroke-linecap:butt;stroke-linejoin:miter;stroke:rgb(0%,0%,100%);stroke-opacity:1;stroke-miterlimit:10;" d="M 229.953125 155.523438 L 231.464844 164.667969 "/>
<path style=" stroke:none;fill-rule:nonzero;fill:rgb(100%,100%,100%);fill-opacity:1;" d="M 237.464844 127.683594 L 245.464844 127.683594 L 245.464844 138.683594 L 237.464844 138.683594 Z M 237.464844 127.683594 "/>
<g style="fill:rgb(100%,0%,0%);fill-opacity:1;">
  <use xlink:href="#glyph0-1" x="237.464844" y="136.34668"/>
</g>
<path style="fill:none;stroke-width:1.2;stroke-linecap:butt;stroke-linejoin:miter;stroke:rgb(0%,0%,100%);stroke-opacity:1;stroke-miterlimit:10;" d="M 231.464844 164.667969 L 223.234375 168.933594 "/>
<path style="fill:none;stroke-width:1.2;stroke-linecap:butt;stroke-linejoin:miter;stroke:rgb(0%,0%,0%);stroke-opacity:1;stroke-miterlimit:10;" d="M 223.234375 168.933594 L 215.003906 173.195312 "/>
<path style="fill:none;stroke-width:1.2;stroke-linecap:butt;stroke-linejoin:miter;stroke:rgb(0%,0%,100%);stroke-opacity:1;stroke-miterlimit:10;" d="M 231.464844 164.667969 L 239.753906 168.820312 "/>
<path style="fill:none;stroke-width:1.2;stroke-linecap:butt;stroke-linejoin:miter;stroke:rgb(0%,0%,0%);stroke-opacity:1;stroke-miterlimit:10;" d="M 239.753906 168.820312 L 248.039062 172.972656 "/>
<path style=" stroke:none;fill-rule:nonzero;fill:rgb(100%,100%,100%);fill-opacity:1;" d="M 228.464844 159.167969 L 235.464844 159.167969 L 235.464844 170.167969 L 228.464844 170.167969 Z M 228.464844 159.167969 "/>
<g style="fill:rgb(0%,0%,100%);fill-opacity:1;">
  <use xlink:href="#glyph0-2" x="228.464844" y="167.831055"/>
</g>
<path style="fill:none;stroke-width:1.2;stroke-linecap:butt;stroke-linejoin:miter;stroke:rgb(0%,0%,0%);stroke-opacity:1;stroke-miterlimit:10;" d="M 212.847656 172.871094 L 211.460938 182.035156 "/>
<path style="fill:none;stroke-width:1.2;stroke-linecap:butt;stroke-linejoin:miter;stroke:rgb(100%,0%,0%);stroke-opacity:1;stroke-miterlimit:10;" d="M 211.460938 182.035156 L 210.070312 191.199219 "/>
<path style="fill:none;stroke-width:1.2;stroke-linecap:butt;stroke-linejoin:miter;stroke:rgb(0%,0%,0%);stroke-opacity:1;stroke-miterlimit:10;" d="M 217.160156 173.523438 L 215.773438 182.6875 "/>
<path style="fill:none;stroke-width:1.2;stroke-linecap:butt;stroke-linejoin:miter;stroke:rgb(100%,0%,0%);stroke-opacity:1;stroke-miterlimit:10;" d="M 215.773438 182.6875 L 214.382812 191.851562 "/>
<path style=" stroke:none;fill-rule:nonzero;fill:rgb(100%,100%,100%);fill-opacity:1;" d="M 208.226562 186.027344 L 216.226562 186.027344 L 216.226562 197.027344 L 208.226562 197.027344 Z M 208.226562 186.027344 "/>
<g style="fill:rgb(100%,0%,0%);fill-opacity:1;">
  <use xlink:href="#glyph0-1" x="208.226562" y="194.69043"/>
</g>
<path style="fill:none;stroke-width:1;stroke-linecap:butt;stroke-linejoin:miter;stroke:rgb(0%,0%,0%);stroke-opacity:1;stroke-miterlimit:10;" d="M 249.132812 191.480469 L 249.132812 191.480469 M 249.480469 188.5 L 248.441406 188.5625 M 249.828125 185.519531 L 247.746094 185.644531 M 250.171875 182.539062 L 247.050781 182.726562 M 250.519531 179.5625 L 246.355469 179.808594 M 250.863281 176.582031 L 245.660156 176.890625 M 251.210938 173.601562 L 244.964844 173.96875 M 251.304688 172.78125 L 244.773438 173.167969 "/>
<path style="fill:none;stroke-width:1.2;stroke-linecap:butt;stroke-linejoin:miter;stroke:rgb(0%,0%,0%);stroke-opacity:1;stroke-miterlimit:10;" d="M 249.132812 191.480469 L 264.75 201.472656 "/>
<path style="fill:none;stroke-width:1.2;stroke-linecap:butt;stroke-linejoin:miter;stroke:rgb(100%,0%,0%);stroke-opacity:1;stroke-miterlimit:10;" d="M 234.804688 203.246094 L 241.96875 197.363281 "/>
<path style="fill:none;stroke-width:1.2;stroke-linecap:butt;stroke-linejoin:miter;stroke:rgb(0%,0%,0%);stroke-opacity:1;stroke-miterlimit:10;" d="M 241.96875 197.363281 L 249.132812 191.480469 "/>
<path style="fill:none;stroke-width:1.2;stroke-linecap:butt;stroke-linejoin:miter;stroke:rgb(0%,0%,0%);stroke-opacity:1;stroke-miterlimit:10;" d="M 264.75 201.472656 L 260.070312 219.410156 "/>
<path style="fill:none;stroke-width:1.2;stroke-linecap:butt;stroke-linejoin:miter;stroke:rgb(0%,0%,0%);stroke-opacity:1;stroke-miterlimit:10;" d="M 260.070312 219.410156 L 241.566406 220.507812 "/>
<path style="fill:none;stroke-width:1.2;stroke-linecap:butt;stroke-linejoin:miter;stroke:rgb(0%,0%,0%);stroke-opacity:1;stroke-miterlimit:10;" d="M 241.566406 220.507812 L 238.1875 211.875 "/>
<path style="fill:none;stroke-width:1.2;stroke-linecap:butt;stroke-linejoin:miter;stroke:rgb(100%,0%,0%);stroke-opacity:1;stroke-miterlimit:10;" d="M 238.1875 211.875 L 234.804688 203.246094 "/>
<path style=" stroke:none;fill-rule:nonzero;fill:rgb(100%,100%,100%);fill-opacity:1;" d="M 230.804688 197.746094 L 238.804688 197.746094 L 238.804688 208.746094 L 230.804688 208.746094 Z M 230.804688 197.746094 "/>
<g style="fill:rgb(100%,0%,0%);fill-opacity:1;">
  <use xlink:href="#glyph0-1" x="230.804688" y="206.40918"/>
</g>
<path style=" stroke:none;fill-rule:nonzero;fill:rgb(100%,100%,100%);fill-opacity:1;" d="M 219.722656 104.953125 L 234.722656 104.953125 L 234.722656 115.953125 L 219.722656 115.953125 Z M 219.722656 104.953125 "/>
<g style="fill:rgb(100%,0%,0%);fill-opacity:1;">
  <use xlink:href="#glyph0-1" x="219.722656" y="113.616211"/>
  <use xlink:href="#glyph0-3" x="227.064453" y="113.616211"/>
</g>
<path style=" stroke:none;fill-rule:nonzero;fill:rgb(100%,100%,100%);fill-opacity:1;" d="M 199.320312 73.992188 L 214.320312 73.992188 L 214.320312 84.992188 L 199.320312 84.992188 Z M 199.320312 73.992188 "/>
<g style="fill:rgb(100%,0%,0%);fill-opacity:1;">
  <use xlink:href="#glyph0-1" x="199.320312" y="82.655273"/>
  <use xlink:href="#glyph0-3" x="206.662109" y="82.655273"/>
</g>
</g>
</svg>

<svg xmlns="http://www.w3.org/2000/svg" xmlns:xlink="http://www.w3.org/1999/xlink" width="300pt" height="300pt" viewBox="0 0 300 300"><defs><symbol overflow="visible"><path d="M.453 1.594v-7.938h4.5v7.938zm.5-.5h3.5v-6.938h-3.5zm0 0"/></symbol><symbol overflow="visible" id="a"><path d="M3.547-5.953c-.65 0-1.164.242-1.547.72-.375.48-.563 1.13-.563 1.952 0 .835.188 1.49.563 1.967.383.48.898.72 1.547.72.644 0 1.156-.24 1.53-.72.376-.476.564-1.132.564-1.968 0-.822-.187-1.474-.562-1.954-.375-.477-.887-.72-1.53-.72zm0-.734c.914 0 1.648.312 2.203.937.55.617.828 1.438.828 2.47 0 1.042-.277 1.87-.828 2.483-.555.617-1.29.922-2.203.922-.93 0-1.668-.305-2.22-.922C.774-1.41.5-2.237.5-3.28c0-1.033.273-1.853.828-2.47.55-.625 1.29-.938 2.22-.938zm0 0"/></symbol><symbol overflow="visible" id="b"><path d="M.89-6.563H2.08l2.906 5.485v-5.484h.86V0H4.656L1.75-5.484V0H.89zm0 0"/></symbol><symbol overflow="visible" id="c"><path d="M.89-6.563h.876v2.688H5v-2.688h.89V0H5v-3.125H1.766V0H.89zm0 0"/></symbol></defs><g><path fill="#fff" d="M0 0h300v300H0z"/><path d="M37.145 202.082l8.304-16.574M45.45 185.508l18.507-1.094M47.56 189.75l14.803-.875M45.45 185.508l-10.2-15.48M63.957 184.414l8.305-16.578M72.262 167.836l18.508-1.094M90.77 166.742l8.304-16.574M99.074 150.168l18.508-1.094M101.184 154.414l14.804-.875M99.074 150.168l-10.2-15.48M117.582 149.074l8.305-16.574M125.887 132.5l9.254-.547" stroke-width="1.2" stroke="#000" stroke-miterlimit="10" fill="none"/><path d="M135.14 131.953l9.255-.547M144.395 131.406l4.152-8.29" stroke-width="1.2" stroke="#f00" stroke-miterlimit="10" fill="none"/><path d="M148.547 123.117l4.152-8.285" stroke-width="1.2" stroke="#00f" stroke-miterlimit="10" fill="none"/><path d="M140.395 125.906h8v11h-8zm0 0" fill="#fff"/><use xlink:href="#a" x="140.395" y="134.569" fill="#f00"/><path d="M152.7 114.832l9.253-.547" stroke-width="1.2" stroke="#00f" stroke-miterlimit="10" fill="none"/><path d="M161.953 114.285l9.25-.547" stroke-width="1.2" stroke="#000" stroke-miterlimit="10" fill="none"/><path d="M154.805 119.074l7.402-.437" stroke-width="1.2" stroke="#00f" stroke-miterlimit="10" fill="none"/><path d="M162.207 118.637l7.402-.438" stroke-width="1.2" stroke="#000" stroke-miterlimit="10" fill="none"/><path d="M149.7 109.332h7v11h-7zm0 0" fill="#fff"/><use xlink:href="#b" x="149.699" y="117.995" fill="#00f"/><path d="M171.203 113.738l8.305-16.574M171.203 113.738l10.203 15.477M179.508 97.164l18.508-1.098M198.016 96.066l10.203 15.48" stroke-width="1.2" stroke="#000" stroke-miterlimit="10" fill="none"/><path d="M198.016 96.066l11.23-15.105-5.848-2.933zm0 0"/><path d="M208.22 111.547l-8.31 16.574" stroke-width="1.2" stroke="#000" stroke-miterlimit="10" fill="none"/><path d="M208.22 111.547l18.698 2.172-.387-6.532zm0 0"/><path d="M199.91 128.12m-2.976-.343l.058 1.04m-3.04-1.387l.122 2.082m-3.1-2.43l.182 3.125m-3.164-3.47l.246 4.165m-3.226-4.51l.308 5.206m-3.29-5.55l.372 6.245m-1.19-6.344l.386 6.53" stroke="#000" stroke-miterlimit="10" fill="none"/><path d="M210.113 143.602l-10.203-15.48" stroke-width="1.2" stroke="#000" stroke-miterlimit="10" fill="none"/><path d="M181.406 129.215m-1.79 2.41l.93.465m-2.718 1.94l1.863.935m-3.655 1.476l2.797 1.4m-4.586 1.008l3.73 1.867m-5.52.54l4.66 2.335m-6.448.074l5.594 2.8m-6.086-2.14l5.847 2.934" stroke="#000" stroke-miterlimit="10" fill="none"/><path d="M173.102 145.79l10.2 15.48" stroke-width="1.2" stroke="#000" stroke-miterlimit="10" fill="none"/><path d="M201.81 160.176l-18.7-2.172.386 6.53zm0 0"/><path d="M201.81 160.176l8.303-16.574M215.004 173.195l-13.195-13.02" stroke-width="1.2" stroke="#000" stroke-miterlimit="10" fill="none"/><path d="M210.113 143.602m2.844.957l.156-1.033m2.688 1.99l.313-2.06m2.528 3.02l.47-3.094m2.374 4.05l.625-4.124m2.218 5.08l.78-5.152m2.064 6.114l.937-6.188m-.157 6.45l.98-6.47" stroke="#000" stroke-miterlimit="10" fill="none"/><path d="M229.996 147.91l6.508-6.597" stroke-width="1.2" stroke="#000" stroke-miterlimit="10" fill="none"/><path d="M236.504 141.313l6.512-6.598" stroke-width="1.2" stroke="#f00" stroke-miterlimit="10" fill="none"/><path d="M226.89 144.848l6.512-6.598" stroke-width="1.2" stroke="#000" stroke-miterlimit="10" fill="none"/><path d="M233.402 138.25l6.508-6.602" stroke-width="1.2" stroke="#f00" stroke-miterlimit="10" fill="none"/><path d="M228.44 146.38l1.513 9.143" stroke-width="1.2" stroke="#000" stroke-miterlimit="10" fill="none"/><path d="M229.953 155.523l1.512 9.145" stroke-width="1.2" stroke="#00f" stroke-miterlimit="10" fill="none"/><path d="M237.465 127.684h8v11h-8zm0 0" fill="#fff"/><use xlink:href="#a" x="237.465" y="136.347" fill="#f00"/><path d="M231.465 164.668l-8.23 4.266" stroke-width="1.2" stroke="#00f" stroke-miterlimit="10" fill="none"/><path d="M223.234 168.934l-8.23 4.26" stroke-width="1.2" stroke="#000" stroke-miterlimit="10" fill="none"/><path d="M231.465 164.668l8.29 4.152" stroke-width="1.2" stroke="#00f" stroke-miterlimit="10" fill="none"/><path d="M239.754 168.82l8.285 4.153" stroke-width="1.2" stroke="#000" stroke-miterlimit="10" fill="none"/><path d="M228.465 159.168h7v11h-7zm0 0" fill="#fff"/><use xlink:href="#b" x="228.465" y="167.831" fill="#00f"/><path d="M212.848 172.87l-1.387 9.165" stroke-width="1.2" stroke="#000" stroke-miterlimit="10" fill="none"/><path d="M211.46 182.035l-1.39 9.164" stroke-width="1.2" stroke="#f00" stroke-miterlimit="10" fill="none"/><path d="M217.16 173.523l-1.387 9.165" stroke-width="1.2" stroke="#000" stroke-miterlimit="10" fill="none"/><path d="M215.773 182.688l-1.39 9.164" stroke-width="1.2" stroke="#f00" stroke-miterlimit="10" fill="none"/><path d="M208.227 186.027h8v11h-8zm0 0" fill="#fff"/><use xlink:href="#a" x="208.227" y="194.69" fill="#f00"/><path d="M249.133 191.48m.347-2.98l-1.04.063m1.388-3.043l-2.082.125m2.426-3.106l-3.12.187m3.468-3.165l-4.165.247m4.508-3.228l-5.203.31m5.55-3.29l-6.245.367m6.34-1.19l-6.532.388" stroke="#000" stroke-miterlimit="10" fill="none"/><path d="M249.133 191.48l15.617 9.993" stroke-width="1.2" stroke="#000" stroke-miterlimit="10" fill="none"/><path d="M234.805 203.246l7.164-5.883" stroke-width="1.2" stroke="#f00" stroke-miterlimit="10" fill="none"/><path d="M241.97 197.363l7.163-5.883M264.75 201.473l-4.68 17.937M260.07 219.41l-18.504 1.098M241.566 220.508l-3.38-8.633" stroke-width="1.2" stroke="#000" stroke-miterlimit="10" fill="none"/><path d="M238.188 211.875l-3.383-8.63" stroke-width="1.2" stroke="#f00" stroke-miterlimit="10" fill="none"/><path d="M230.805 197.746h8v11h-8zm0 0" fill="#fff"/><use xlink:href="#a" x="230.805" y="206.409" fill="#f00"/><path d="M219.723 104.953h15v11h-15zm0 0" fill="#fff"/><g fill="#f00"><use xlink:href="#a" x="219.723" y="113.616"/><use xlink:href="#c" x="227.064" y="113.616"/></g><path d="M199.32 73.992h15v11h-15zm0 0" fill="#fff"/><g fill="#f00"><use xlink:href="#a" x="199.32" y="82.655"/><use xlink:href="#c" x="206.662" y="82.655"/></g></g></svg>
